X: 834
T: Alberta Crosswind, The
R: hornpipe
M: 4/4
K: Gmajor
|:(3DEF|G2 B2 d>e d>B|c2 A2 E2>>G2|F>D ^C>D F>G ^G>A|B>e d>G B2>>A2|
G2 e2 (3ded B>G|c2 e2 g2>>e2|d>B G>B c>A F>D|=F>^F B>A G2:|
|:F>E|D>A F>A D>c ^G>A|B>e d>G B2 B>A|^G>E ^D>E G>A B>e|(3ded c>B c2 e>f|
g2 G2 f2 e>f|e>d d>^c d2 B>^G|A>B c>^c d>e d>F|(3ABA G>F G2:|

